X:25
T:Gargle Hooch
C:Roy Watrous
S:The Watrous Book, 1992
M:6/8
L:1/8
Q:1/8=270
K:G
%%MIDI program 72
%%MIDI transpose 8
%%MIDI ratio 3 1
{DEF}G2B dBd|ege dBd|G2B dBd|egB A3|{DEF}G2B dBd|ege dga|
.bz2 g3|dgf g3::z|f2f fga|gba ged|e2e dBc|dgB A3|
{DEF}G2B dBd|ege dga|.bz2 g3|dgf g2:|g|fdg adb|gfe d2B|
dgB dgB|dgB A3|{DEF}G2B dBd|ege dga|.bz2 g3|dgf g2:|]

